images/chsb.svg

<svg height="250" viewBox="0 0 250 250" width="250" xmlns="http://www.w3.org/2000/svg"><path d="m154.804688 0-20.507813 11.636719v98.863281l11.199219 6.363281v-75.289062l38.441406 21.820312.039062-.015625 7.464844 4.230469 6.230469-3.515625v-5.941406l-52.175781-29.578125v-10.292969l9.308594-5.28125 54.035156 30.679688v27.300781l-25.941406 14.644531-.875-.433594c-1.578126-.777344-3.214844-1.175781-4.859376-1.175781-6.171874 0-11.195312 5.089844-11.195312 11.339844s5.023438 11.34375 11.195312 11.34375c5.726563 0 10.488282-4.378907 11.078126-10.183594l.097656-.980469 26.179687-14.777344 24.28125 13.785157v60.992187l-24.308593 13.785156-98.789063-56.101562v-101.574219l-20.507813-11.644531-65.234374 37.035156v33.792969l-29.960938 16.988281v74.285156l29.960938 17.007813v33.855469l65.234374 37.035156 20.507813-11.640625v-99.078125l-11.199219-6.355469v75.503907l-45.945312-26.039063-6.234375 3.515625v5.945312l52.179687 29.578126v10.285156l-9.308594 5.285156-54.035156-30.679688v-27.308593l25.941406-14.632813.871094.429688c1.585938.777344 3.214844 1.175781 4.859375 1.175781 6.171875 0 11.199219-5.085937 11.199219-11.339844 0-6.257812-5.027344-11.339843-11.199219-11.339843-5.722656 0-10.480469 4.375-11.074219 10.183593l-.09375.976563-26.1875 14.777344-24.28125-13.785157v-60.992187l24.3125-13.78125 98.789063 56.09375v101.582031l20.507813 11.640625 65.234374-37.035156v-33.792969l29.960938-16.988281v-74.285156l-29.960938-17.003907v-33.859375zm-113.644532 43.679688 54.035156-30.679688 9.308594 5.285156v10.285156l-63.34375 35.90625zm5.808594 30.511718 57.535156-32.625v65.292969zm98.527344 68.945313 57.539062 32.675781-57.539062 32.621094zm0 88.578125v-10.28125l63.34375-35.914063v20.800781l-54.035156 30.679688zm0 0" fill="#01c38d" fill-rule="evenodd"/></svg>

<svg xmlns="http://www.w3.org/2000/svg" width="250" height="250"><path fill="#01c38d" fill-rule="evenodd" d="m154.805 0-20.508 11.637V110.5l11.2 6.363V41.574l38.44 21.82.04-.015 7.464 4.23 6.23-3.515v-5.942l-52.175-29.578V18.281L154.805 13l54.035 30.68v27.3l-25.942 14.645-.875-.434c-1.578-.777-3.214-1.175-4.859-1.175-6.172 0-11.195 5.09-11.195 11.34s5.023 11.343 11.195 11.343c5.727 0 10.488-4.379 11.078-10.183l.098-.98 26.18-14.778 24.28 13.785v60.992l-24.308 13.785-98.789-56.101V11.645L95.195 0 29.961 37.035v33.793L0 87.816v74.286l29.96 17.007v33.856L95.196 250l20.508-11.64V139.28l-11.2-6.355v75.504L58.56 182.39l-6.235 3.516v5.946l52.18 29.578v10.285L95.195 237 41.16 206.32v-27.308l25.942-14.633.87.43c1.587.777 3.216 1.175 4.86 1.175 6.172 0 11.2-5.086 11.2-11.34 0-6.257-5.028-11.34-11.2-11.34-5.723 0-10.48 4.376-11.074 10.184l-.094.977-26.187 14.777-24.282-13.785V94.465l24.313-13.781 98.789 56.093V238.36L154.805 250l65.234-37.035v-33.793L250 162.184V87.898l-29.96-17.003v-33.86zM41.16 43.68 95.195 13l9.309 5.285V28.57L41.16 64.477zM46.97 74.19l57.535-32.625v65.293zm98.527 68.946 57.54 32.675-57.54 32.622zm0 88.578v-10.281l63.344-35.914v20.8L154.805 237zm0 0"/></svg>
